!!!COM:	Pierre de la Rue
**kern	**kern
*part2	*part1
*staff2	*staff1
*clefF4	*clefGv2
*k[b-]	*k[b-]
*M2/1	*M2/1
=1-	=1-
0r	0G
=2	=2
1r	1A
[1C	2G
.	[2A
=3	=3
1C]	4A]
.	4B-
.	4c
.	4A
1D	1B-
=4	=4
2C	2.A
2.D	.
.	8GL
.	8AJ
.	2B-
4E	.
4F	[2d
4D	.
=5	=5
1E	2d]
.	2c
2.D	1d
8CL	.
8DJ	.
=6	=6
2E	2r
1G	2d
.	2c
2F	2A
=7	=7
1G	1B-
2r	2r
2G	2B-
=8	=8
2F	2A
2D	2F
1E	1G
=9	=9
2r	2r
2E	2G
2D	2F
2BB-	2D
=10	=10
1C	1E
2r	2D
2C	[2G
=11	=11
2BB-	2G]
2GG	2.G
1AA	.
.	4F
.	2F
=12	=12
2GG	1G
1C	.
.	1A
[2C	.
=13	=13
4C]	2G
4BB-	.
2BB-	2B-
1C	4A
.	4G
.	[2c
=14	=14
1D	2c]
.	2B-
2C	1c
2E	.
=15	=15
4D	1r
4C	.
1F	.
.	1c
2E	.
=16	=16
1F	1c
1r	1A
=17	=17
1F	2A
.	1c
1F	.
.	4B-
.	4A
=18	=18
1D	2B-
.	2A
2D	2F
[2F	[2A
=19	=19
2F]	2A]
4E	4G
4D	4F
2E	2G
2D	2F
=20	=20
2BB-	2D
1D	1F
4C	4E
4BB-	4D
=21	=21
2C	2E
2BB-	2F
2GG	2G
[2BB-	[2d
=22	=22
2BB-]	2d]
4AA	4c
4GG	4B-
2AA	2c
2BB-	2d
=23	=23
2C	1G
1G	.
.	1B-
4F	.
4E	.
=24	=24
2F	2A
2G	1G
1C	.
.	[2c
=25	=25
1E	4c]
.	4B-
.	4A
.	4G
2D	4F
.	4G
[2C	4A
.	4B-
=26	=26
2C]	2A
2.F	2D
.	2r
4E	.
4D	2A
4C	.
=27	=27
4BB-	2B-
4C	.
4D	4A
4E	4G
2D	2F
2GG	[2B-
=28	=28
2r	4B-]
.	4A
2D	4G
.	4F
2E	2.G
4D	.
4C	4F
=29	=29
2BB-	2D
2.E	2.G
4D	4F
4C	4E
4BB-	4D
=30	=30
2.C	1E
4BB-	.
2GG	2D
[2C	[2A
=31	=31
4C]	2A]
4BB-	.
4AA	2.G
4GG	.
1AA	.
.	4F
.	2F
=32	=32
0GG	0G
==	==
*-	*-
